X: 3
T: La Pique Double
M: 6/8
L: 1/8
R: jig
K: D Major
|: A^GA F2 F | A^GA E3 |[1 DDD E2 E | A2 G F2 D :|[2 DDD E2 G | F2 E D3 ||
|: DDD E2 E | A2 G F2 A |[1 DDD E2 A | F2 E F2 D :|[2 DDD E2 G | F2 E D3 ||
